src/actions/24/format-text-direction-horizontal.svg

<svg xmlns="http://www.w3.org/2000/svg" viewBox="0 0 24 24">
  <defs id="defs3051">
    <style type="text/css" id="current-color-scheme">
      .ColorScheme-Text {
        color:#363636;
      }
      </style>
  </defs>
 <path style="fill:currentColor;fill-opacity:1;stroke:none" 
     d="M 7.9433594 4 L 4 10.828125 L 4 11 L 5.0566406 11 L 6.2109375 9 L 10.789062 9 L 11.943359 11 L 13 11 L 13 10.828125 L 9.0566406 4 L 9 4 L 7.9433594 4 z M 12 4 L 12 5 L 17 5 L 17 4 L 12 4 z M 18 4 L 18 8 L 20 6 L 18 4 z M 8.5 5.0371094 L 10.210938 8 L 6.7890625 8 L 8.5 5.0371094 z M 13 7 L 13 8 L 17 8 L 17 7 L 13 7 z M 14 10 L 14 11 L 17 11 L 17 10 L 14 10 z M 18 10 L 18 14 L 20 12 L 18 10 z M 4 13 L 4 14 L 17 14 L 17 13 L 4 13 z M 4 16 L 4 17 L 17 17 L 17 16 L 4 16 z M 18 16 L 18 20 L 20 18 L 18 16 z M 4 19 L 4 20 L 17 20 L 17 19 L 4 19 z "
     class="ColorScheme-Text"
     />
</svg>

<svg xmlns="http://www.w3.org/2000/svg" viewBox="0 0 24 24">
    <path d="M7.943 4 4 10.828V11h1.057L6.21 9h4.578l1.154 2H13v-.172L9.057 4H7.943zM12 4v1h5V4h-5zm6 0v4l2-2-2-2zM8.5 5.037 10.21 8H6.79L8.5 5.037zM13 7v1h4V7h-4zm1 3v1h3v-1h-3zm4 0v4l2-2-2-2zM4 13v1h13v-1H4zm0 3v1h13v-1H4zm14 0v4l2-2-2-2zM4 19v1h13v-1H4z" style="fill:currentColor;fill-opacity:1;stroke:none;color:#050505;opacity:.7"/>
</svg>
